X: 26931
T: Miss Baird Of Saughton Hall
R: three-two
M: 3/2
K: Amajor
|:EA cA GB EA cA e2|f>g aA GB FB A/G/F/E/ A2:|
Ac ac dB Ac ec a2|f>g aA GB FB A/G/F/E/ A2|
Ac ac dB Ac ec a2|f/g/a/e/ d/c/B/A/ GB FB A/G/F/E/ A2||

